src/icons/alert.svg

<svg viewBox="0 0 48 49" fill="none" xmlns="http://www.w3.org/2000/svg">
<path fill="currentColor" opacity="0.44" d="M24.8942 7.95537C24.7073 7.6575 24.4435 7.41259 24.1293 7.24504C23.8151 7.07749 23.4613 6.99316 23.1033 7.00043C22.7452 7.00771 22.3954 7.10635 22.0886 7.28652C21.7818 7.46669 21.5288 7.72211 21.3548 8.02731L4.25832 38.0305C4.08475 38.3348 3.99575 38.6781 4.00016 39.0263C4.00456 39.3745 4.1022 39.7155 4.28342 40.0156C4.46463 40.3157 4.72312 40.5644 5.03326 40.7371C5.34341 40.9097 5.69444 41.0004 6.05158 41H41.9517C42.3156 40.9998 42.6729 40.9051 42.9868 40.7257C43.3008 40.5463 43.5601 40.2886 43.7381 39.9791C43.9161 39.6697 44.0064 39.3195 43.9996 38.9648C43.9929 38.61 43.8895 38.2634 43.6999 37.9605L24.8942 7.95537Z"/>
<path fill="currentColor" d="M25.3999 19C25.3999 17.8954 24.5045 17 23.3999 17C22.2953 17 21.3999 17.8954 21.3999 19V29C21.3999 30.1046 22.2953 31 23.3999 31C24.5045 31 25.3999 30.1046 25.3999 29V19Z"/>
<path fill="currentColor" d="M25.3999 35C25.3999 33.8954 24.5045 33 23.3999 33C22.2953 33 21.3999 33.8954 21.3999 35C21.3999 36.1046 22.2953 37 23.3999 37C24.5045 37 25.3999 36.1046 25.3999 35Z"/>
</svg>

<svg viewBox="0 0 48 49" fill="none" xmlns="http://www.w3.org/2000/svg"><path fill="currentColor" opacity=".44" d="M24.894 7.955a2.028 2.028 0 0 0-.765-.71 2.092 2.092 0 0 0-2.04.042c-.307.18-.56.435-.734.74L4.258 38.031a1.959 1.959 0 0 0 .025 1.985c.182.3.44.548.75.721.31.173.661.263 1.019.263h35.9a2.09 2.09 0 0 0 1.035-.274c.314-.18.573-.437.751-.747a1.958 1.958 0 0 0-.038-2.018L24.894 7.955z"/><path fill="currentColor" d="M25.4 19a2 2 0 1 0-4 0v10a2 2 0 1 0 4 0V19zM25.4 35a2 2 0 1 0-4 0 2 2 0 0 0 4 0z"/></svg>
